X:1
T:Memories of Mother
T:Robert Harkness
T:Memories of Mother
T:Public Domain
T:Public Domain
C:Robert Harkness
Z:Public Domain
%%score 1 ( 2 3 ) ( 4 5 )
L:1/8
M:6/8
K:Bb
V:1 treble 
V:2 treble 
V:3 treble 
V:4 bass 
V:5 bass 
V:1
 d | d2 d d2 d | e2 e e2 e | e2 e e2 e | d2 d d2 d | d2 d d2 d | d2 c c2 B | d2 d f2 d | f2 e d2 || %9
 z | z6 | z6 | z6 | z6 | z6 | z6 | z6 | z6 |] %18
V:2
 [DB] | [DA]2 [DG] [DF]2 [D^F] | [EA]2 [EG] [EG]2 [Ec] | [EB]2 [EA] [EG]2 [EA] | %4
w: 1.~My|mo- ther’s hand is|on my brow, Her|gen- tle voice is|
w: 2.~Once|more I see that|look of pain, The|an- guish in those|
w: 3.~While|o- thers scorned me|in their pride She|gent- ly drew me|
w: 4.~The|mem- o- ries of|by- gone years, My|mo- ther’s love, my|
w: 5.~I’m|com- ing home, by|sin be- set, For|Je- sus loves me|
 [DG]2 [DF] [DF]2 [DB] | [DA]2 [DA] [DG]2 [DF] | [DF]2 [CE] [CE]2 [B,D] | [DF]2 [DB] [Fd]2 [DB] | %8
w: plead- ing now; A-|cross the years so|marred by sin What|mem- o- ries of|
w: eyes a- gain; My|heart is sad, for|well I know My|sin has caused this|
w: to her side; When|all the world has|turned a- way, My|mo- ther stood by|
w: mo- ther’s tears, The|tho’t of all her|con- stant care Doth|bring the an- swer|
w: ev- en yet; My|mo- ther’s love brings|home to me The|great- er love of|
 [Fd]2 [Ec] [DB]2 ||"^Refrain" [DF] | [Fd] [Fd]2 [Ge]2 [Fd] | [=Ed]2 [EG] [EG]2 [EG] | %12
w: love steal in!||||
w: bit- ter woe.||||
w: me that day.||||
w: to her prayer.||||
w: Cal- va- ry.||||
 [Ec]2 [Ec] [Fd]2 [Ec] | [DB]2 [DF] [DF]2 F | [Fd]2 [Fd] [Ge]2 [Fd] | [=EG]2 [Ed] [Ec]2 [EB] | %16
w: ||||
w: ||||
w: ||||
w: ||||
w: ||||
 [DF] [DB]2 [Fd]2 [FB] | [Fd] [Ec]2 [DB]2 x |] %18
w: ||
w: ||
w: ||
w: ||
w: ||
V:3
 x | x6 | x6 | x6 | x6 | x6 | x6 | x6 | x5 || x | x6 | x6 | x6 | x5 F | x6 | x6 | x6 | x6 |] %18
V:4
 [B,,F,] | [B,,F,]2 [B,,F,] [B,,F,]2 [B,,^F,] | [E,C]2 [E,B,] [E,B,]2 [C,C] | %3
w: ~|~ ~ ~ ~|~ ~ ~ ~|
 [C,B,]2 [C,A,] [F,B,]2 [F,C] | [B,,G,]2 [B,,F,] [B,,F,]2 [B,,F,] | %5
w: ~ ~ ~ ~|~ ~ ~ ~|
 [A,,^F,]2 [A,,F,] [G,,=F,]2 [=B,,G,] | [C,_A,]2 [C,G,] [C,G,]2 [F,,F,] | %7
w: ~ ~ ~ ~|~ ~ ~ ~|
 [F,,F,]2 [F,,F,] [F,B,]2 [F,B,] | [F,B,]2 [F,A,] [B,,B,]2 || [B,,B,] | B, B,2 B,2 B, | %11
w: ~ ~ ~ ~|~ ~ ~|O|mo- ther, when I|
 [C,B,]2 [C,B,] [C,B,]2 [C,B,] | [F,A,]2 [F,A,] [F,B,]2 [F,A,] | [B,,B,]2 B, B,2 [B,D] | %14
w: but a step to|Cal- va- ry; Thy|gen- tle hand up-|
 [G,=B,]2 [G,B,] [G,C]2 [G,B,] | [C,B,]2 [C,B,] [C,B,]2 [C,B,] | [F,B,] [F,B,]2 [F,B,]2 [F,D] | %17
w: brow Is lead- ing|me to Je- sus|now. * * *|
 [F,B,] [F,A,]2 [B,,B,]2 x |] %18
w: |
V:5
 x | x6 | x6 | x6 | x6 | x6 | x6 | x6 | x5 || x | B, B,2 B,2 B, | x6 | x6 | x2 B, B,2 x | x6 | x6 | %16
w: ||||||||||think of thee, ’Tis|||on my|||
 x6 | x6 |] %18
w: ||

